X:18
T:Lilting Fisherman, The
T:A Bit Of Ginger
T:Fisherman's Lilt, The
T:Joe Derrane's
T:Lilting Fisherman
R:jig
M:6/8
L:1/8
K:Gmaj
B|dBG GBd|gfg ege|dBG GFG|AFD cBc|
dBG GBd|gfg ege|dBG FGA|BGF G2:|
K:D Major
B|ABA AFA|fgf f2e|dfe dcB|ABA AFG|
AFA AFA|BGB Bcd|cec ABc|dfe d2:|
